packages/ffe-icons/icons/filled/md/villa.svg

<svg xmlns="http://www.w3.org/2000/svg" height="24" viewBox="0 -960 960 960" width="24"><path d="M380.001-140.001v-247.69q0-29.827 21.241-51.067 21.24-21.241 51.067-21.241h226.152q0-29.153 20.781-49.961 20.78-20.807 49.961-20.807 29.181 0 49.988 20.788 20.808 20.788 20.808 49.98v319.998H635.384v-130.768q0-14.692-10.173-25.038T600-306.153q-14.692 0-25.038 10.346t-10.346 25.038v130.768H380.001Zm-240 0v-436.537q0-22.564 12.628-41.066 12.627-18.503 33.372-26.626l389.614-149.384q18.076-7.23 33.538 3.641 15.461 10.872 15.461 29.898v240.078h-196.15q-45.192 0-76.827 31.634-31.634 31.635-31.634 76.827v271.535H140.001Z"/></svg>

<svg xmlns="http://www.w3.org/2000/svg" height="24" viewBox="0 -960 960 960" width="24"><path d="M380-140v-247.69q0-29.83 21.24-51.07Q422.48-460 452.31-460h226.15q0-29.15 20.78-49.96 20.78-20.81 49.96-20.81t49.99 20.79Q820-489.19 820-460v320H635.38v-130.77q0-14.69-10.17-25.04-10.17-10.34-25.21-10.34-14.69 0-25.04 10.34-10.34 10.35-10.34 25.04V-140H380Zm-240 0v-436.54q0-22.56 12.63-41.06 12.63-18.51 33.37-26.63l389.61-149.38q18.08-7.23 33.54 3.64 15.46 10.87 15.46 29.89V-520H428.46q-45.19 0-76.82 31.64Q320-456.73 320-411.54V-140H140Z"/></svg>
